vinfonet2025/img/BillingCycle.svg

<svg xmlns="http://www.w3.org/2000/svg" width="512" height="512" style="shape-rendering:geometricPrecision;text-rendering:geometricPrecision;image-rendering:optimizeQuality;fill-rule:evenodd;clip-rule:evenodd"><path d="M-.5-.5h55v165h-55z" style="opacity:.995"/><path d="M128.5-.5h134q15.158 3.323 28 12.5a822 822 0 0 1 42 41.5 989 989 0 0 1-77 .5 609 609 0 0 0-21-20.5 195 195 0 0 0-12 11.5l66.5 66.5q8.774 16.088-5.5 27.5-10.024 4.894-20 0-28.768-27.77-57.5-55.5-35.369 30.731-72.5 2a198 198 0 0 0-11 12.5 94.7 94.7 0 0 0 23.5 14.5q.75 22.494.5 45-29.101-1.615-52-19.5a242 242 0 0 0-22-.5v-121q11.607.534 23-1.5a374 374 0 0 0 33-15.5" style="opacity:.98"/><path d="M511.5 72.5v202h-348v-158q22.75.954 42-11a328 328 0 0 1 15.5 15q-.668 3.575-3.5 6.5-15.207 12.433-35 10.5v72q47.5-1.5 46 46h219q-2.75-47.75 45-46v-72q-46.857.644-45-46-77.501.25-155-.5l-18-18q118.499-.75 237-.5" style="opacity:.968"/><path d="M307.5 108.5h123q8 37 45 45 .25 19.506-.5 39-35.884 8.133-44.5 44-92.994 1.5-186 1-7.686-35.938-43.5-45a760 760 0 0 1-.5-39q20.108-3.92 33.5-19a228 228 0 0 1 18.5 17.5q24.294 14.372 46-3.5l1 1q-18.143 36.039 13 61.5 34.93 18.914 61.5-10.5 21.01-35.705-9.5-63.5-23.625-15.133-49-3a40.6 40.6 0 0 0-10.5 8.5q3.963-9.119 4.5-19.5a88.5 88.5 0 0 0-2-14.5" style="opacity:.973"/><path d="M331.5 145.5q35.717-1.535 33.5 34-5.796 20.284-27 22-25.899-2.15-28.5-28 1.636-21.61 22-28" style="opacity:.957"/><path d="M511.5 364.5v147h-55v-147z" style="opacity:.993"/><path d="M402.5 511.5h-144A24404 24404 0 0 1 82.5 407q-9.805-8.633-6.5-21.5 7.4-15.57 24.5-11.5l103 55.5q12.987 35.745 50 26.5a3112 3112 0 0 0 95-26.5 249 249 0 0 1-4-15l-106 27q-24.326-5.651-15.5-29 2.75-3.75 6.5-6.5a4874 4874 0 0 1 115-31 257 257 0 0 1 55 0 435 435 0 0 1 38 21.5q1.5 50.49 1 101a425 425 0 0 0-36 14" style="opacity:.98"/></svg>

<?xml version="1.0" encoding="UTF-8"?>
<!DOCTYPE svg PUBLIC "-//W3C//DTD SVG 1.1//EN" "http://www.w3.org/Graphics/SVG/1.1/DTD/svg11.dtd">
<svg xmlns="http://www.w3.org/2000/svg" version="1.1" width="512px" height="512px" style="shape-rendering:geometricPrecision; text-rendering:geometricPrecision; image-rendering:optimizeQuality; fill-rule:evenodd; clip-rule:evenodd" xmlns:xlink="http://www.w3.org/1999/xlink">
<g><path style="opacity:0.995" fill="#000000" d="M -0.5,-0.5 C 17.8333,-0.5 36.1667,-0.5 54.5,-0.5C 54.5,54.5 54.5,109.5 54.5,164.5C 36.1667,164.5 17.8333,164.5 -0.5,164.5C -0.5,109.5 -0.5,54.5 -0.5,-0.5 Z"/></g>
<g><path style="opacity:0.98" fill="#000000" d="M 128.5,-0.5 C 173.167,-0.5 217.833,-0.5 262.5,-0.5C 272.605,1.715 281.939,5.88167 290.5,12C 304.985,25.3182 318.985,39.1516 332.5,53.5C 306.84,54.6665 281.173,54.8332 255.5,54C 248.652,46.9853 241.652,40.152 234.5,33.5C 230.348,37.1511 226.348,40.9844 222.5,45C 244.667,67.1667 266.833,89.3333 289,111.5C 294.85,122.226 293.016,131.392 283.5,139C 276.817,142.263 270.151,142.263 263.5,139C 244.321,120.487 225.155,101.987 206,83.5C 182.421,103.988 158.254,104.654 133.5,85.5C 129.676,89.4929 126.009,93.6596 122.5,98C 129.613,103.974 137.446,108.808 146,112.5C 146.5,127.496 146.667,142.496 146.5,157.5C 127.099,156.423 109.766,149.923 94.5,138C 87.1742,137.5 79.8409,137.334 72.5,137.5C 72.5,97.1667 72.5,56.8333 72.5,16.5C 80.2382,16.8561 87.9048,16.3561 95.5,15C 106.832,10.3315 117.832,5.16482 128.5,-0.5 Z"/></g>
<g><path style="opacity:0.968" fill="#000000" d="M 511.5,72.5 C 511.5,139.833 511.5,207.167 511.5,274.5C 395.5,274.5 279.5,274.5 163.5,274.5C 163.5,221.833 163.5,169.167 163.5,116.5C 178.667,117.136 192.667,113.469 205.5,105.5C 210.819,110.318 215.985,115.318 221,120.5C 220.554,122.883 219.388,125.05 217.5,127C 207.362,135.289 195.695,138.789 182.5,137.5C 182.5,161.5 182.5,185.5 182.5,209.5C 214.167,208.5 229.5,223.833 228.5,255.5C 301.5,255.5 374.5,255.5 447.5,255.5C 445.667,223.666 460.667,208.333 492.5,209.5C 492.5,185.5 492.5,161.5 492.5,137.5C 461.262,137.929 446.262,122.596 447.5,91.5C 395.832,91.6667 344.166,91.5 292.5,91C 286.5,85 280.5,79 274.5,73C 353.499,72.5 432.499,72.3333 511.5,72.5 Z"/></g>
<g><path style="opacity:0.973" fill="#000000" d="M 307.5,108.5 C 348.5,108.5 389.5,108.5 430.5,108.5C 435.833,133.167 450.833,148.167 475.5,153.5C 475.667,166.504 475.5,179.504 475,192.5C 451.078,197.922 436.244,212.589 430.5,236.5C 368.504,237.5 306.504,237.833 244.5,237.5C 239.376,213.541 224.876,198.541 201,192.5C 200.5,179.504 200.333,166.504 200.5,153.5C 213.905,150.887 225.072,144.554 234,134.5C 240.457,139.955 246.624,145.788 252.5,152C 268.696,161.581 284.029,160.415 298.5,148.5C 298.833,148.833 299.167,149.167 299.5,149.5C 287.405,173.526 291.738,194.026 312.5,211C 335.787,223.609 356.287,220.109 374,200.5C 388.006,176.697 384.84,155.53 364.5,137C 348.75,126.911 332.417,125.911 315.5,134C 311.542,136.234 308.042,139.067 305,142.5C 307.642,136.421 309.142,129.921 309.5,123C 309.232,118.1 308.566,113.267 307.5,108.5 Z"/></g>
<g><path style="opacity:0.957" fill="#000000" d="M 331.5,145.5 C 355.311,144.477 366.478,155.81 365,179.5C 361.136,193.023 352.136,200.356 338,201.5C 320.734,200.067 311.234,190.734 309.5,173.5C 310.591,159.094 317.924,149.76 331.5,145.5 Z"/></g>
<g><path style="opacity:0.993" fill="#000000" d="M 511.5,364.5 C 511.5,413.5 511.5,462.5 511.5,511.5C 493.167,511.5 474.833,511.5 456.5,511.5C 456.5,462.5 456.5,413.5 456.5,364.5C 474.833,364.5 493.167,364.5 511.5,364.5 Z"/></g>
<g><path style="opacity:0.98" fill="#000000" d="M 402.5,511.5 C 354.5,511.5 306.5,511.5 258.5,511.5C 199.764,476.958 141.097,442.125 82.5,407C 75.9634,401.245 73.7967,394.078 76,385.5C 80.9325,375.12 89.0991,371.287 100.5,374C 134.833,392.5 169.167,411 203.5,429.5C 212.158,453.33 228.825,462.164 253.5,456C 285.371,447.651 317.037,438.817 348.5,429.5C 347.008,424.53 345.674,419.53 344.5,414.5C 309.182,423.496 273.849,432.496 238.5,441.5C 222.283,437.732 217.116,428.066 223,412.5C 224.833,410 227,407.833 229.5,406C 267.707,395.198 306.041,384.865 344.5,375C 362.84,373.032 381.174,373.032 399.5,375C 412.531,381.534 425.198,388.7 437.5,396.5C 438.5,430.16 438.833,463.827 438.5,497.5C 426.221,501.647 414.221,506.314 402.5,511.5 Z"/></g>
</svg>
